in-world-resources/textures/runes.svg

<?xml version="1.0" encoding="UTF-8" standalone="no"?>
<!-- Created with Inkscape (http://www.inkscape.org/) -->

<svg
   width="43.918713mm"
   height="61.381214mm"
   viewBox="0 0 43.918713 61.381214"
   version="1.1"
   id="svg1"
   inkscape:version="1.3 (0e150ed6c4, 2023-07-21)"
   sodipodi:docname="runes.svg"
   inkscape:export-filename="runes.png"
   inkscape:export-xdpi="211.87"
   inkscape:export-ydpi="211.87"
   xmlns:inkscape="http://www.inkscape.org/namespaces/inkscape"
   xmlns:sodipodi="http://sodipodi.sourceforge.net/DTD/sodipodi-0.dtd"
   xmlns="http://www.w3.org/2000/svg"
   xmlns:svg="http://www.w3.org/2000/svg">
  <sodipodi:namedview
     id="namedview1"
     pagecolor="#ffffff"
     bordercolor="#666666"
     borderopacity="1.0"
     inkscape:showpageshadow="2"
     inkscape:pageopacity="0.0"
     inkscape:pagecheckerboard="0"
     inkscape:deskcolor="#d1d1d1"
     inkscape:document-units="px"
     showguides="false"
     inkscape:zoom="2.6144947"
     inkscape:cx="34.61472"
     inkscape:cy="105.18285"
     inkscape:window-width="1866"
     inkscape:window-height="1011"
     inkscape:window-x="0"
     inkscape:window-y="0"
     inkscape:window-maximized="1"
     inkscape:current-layer="layer1" />
  <defs
     id="defs1" />
  <g
     inkscape:label="Layer 1"
     inkscape:groupmode="layer"
     id="layer1"
     transform="translate(-0.00105983,-0.00105983)">
    <path
       id="rect1"
       style="opacity:1;fill:#1a1a1a;stroke:#000000;stroke-width:0.264583;stroke-linecap:round;stroke-linejoin:round;stroke-dasharray:none;stroke-opacity:1"
       d="M 2.6458334,2.6458333 V 11.1125 H 3.1750647 V 6.8688314 C 5.2407913,6.7319237 6.879167,5.0094945 6.8791668,2.9098999 V 2.6463501 H 6.3494187 A 3.1738249,3.6503903 0 0 1 6.2114258,3.7114014 C 6.1211315,4.0874363 5.970374,4.4377139 5.7690215,4.7516479 A 3.1738249,3.6503903 0 0 1 5.7623006,4.7619829 3.1738249,3.6503903 0 0 1 3.1760962,6.296773 V 5.8079142 C 4.6563155,5.6729305 5.8207044,4.4243972 5.8207043,2.9098999 V 2.6463501 H 5.2284201 a 2.0525733,2.5351561 0 0 1 -0.051683,0.5653402 c -0.056235,0.3953788 -0.202224,0.75236 -0.4191469,1.0510986 a 2.0525733,2.5351561 0 0 1 -1.581492,0.918807 V 3.1760335 2.6463501 h -0.00103 v -5.168e-4 z" />
    <path
       style="color:#000000;fill:#1a1a1a;stroke:#000000;stroke-width:0.264583;stroke-linejoin:bevel;stroke-dasharray:none;stroke-opacity:1"
       d="M 9.9020344,2.6458333 9.525,2.8841109 V 11.1125 h 0.529412 V 3.3020732 l 3.174511,1.4921646 V 11.1125 h 0.529411 V 4.6262716 L 13.605957,4.3879941 Z"
       id="path6" />
    <path
       id="rect7"
       style="opacity:1;fill:#1a1a1a;fill-opacity:1;stroke:#000000;stroke-width:0.264583;stroke-linecap:round;stroke-linejoin:bevel;stroke-dasharray:none;stroke-opacity:1"
       d="M 16.404167,2.6458333 V 11.1125 h 0.529166 V 7.9245809 L 17.101799,7.8046916 20.6375,5.3516113 20.574972,4.8849732 17.066659,3.6638591 16.933333,3.617867 V 2.6458333 Z m 0.529166,1.5322063 2.975529,1.0350789 -2.975529,2.0639567 z" />
    <path
       id="path9"
       style="color:#000000;fill:#000000;stroke:#000000;stroke-width:0.264583;stroke-linejoin:bevel;stroke-dasharray:none;stroke-opacity:1"
       d="M 23.679692,2.6458333 23.283333,2.8763102 V 11.1125 H 23.8125 V 6.2089234 l 3.442167,1.949235 0.262,-0.4588867 -3.704167,-2.09858 V 3.3295125 l 3.442684,1.9492351 0.261483,-0.4588867 z" />
    <path
       style="color:#000000;fill:#000000;stroke:#000000;stroke-width:0.264583;stroke-linejoin:bevel;stroke-dasharray:none;stroke-opacity:1"
       d="m 33.700691,2.6458333 -3.538191,4.2753906 0.01758,0.3554687 3.84085,3.8359374 0.374907,-0.375 -3.67097,-3.6640624 3.383932,-4.0917968 z"
       id="path11" />
    <path
       style="color:#000000;fill:#000000;stroke:#000000;stroke-width:0.264583;stroke-linejoin:bevel;stroke-dasharray:none;stroke-opacity:1"
       d="m 37.477107,2.6458333 -0.43544,0.203125 V 11.11263 h 0.529167 V 8.0559895 l 3.64949,-1.7734375 0.05468,-0.4394531 z m 0.09373,0.7695312 3.051981,2.5703125 -3.051981,1.4824219 z"
       id="path12" />
    <path
       id="path13"
       style="color:#000000;fill:#000000;stroke:#000000;stroke-width:0.264583;stroke-dasharray:none;stroke-opacity:1"
       d="m 2.645835,14.552083 v 8.467183 H 3.175002 V 17.83767 l 3.175,1.908411 v 3.273185 H 6.879168 V 14.552083 H 6.350002 v 4.577498 l -3.175,-1.911511 v -2.665987 z" />
    <path
       id="path16"
       style="color:#000000;fill:#000000;stroke:#000000;stroke-width:0.264583;stroke-dasharray:none;stroke-opacity:1"
       d="m 11.377085,14.552083 v 2.214852 l -1.549259,-1.080038 -0.302824,0.433566 1.852083,1.291394 v 5.606892 h 0.529167 v -5.237923 l 1.54926,1.080038 0.302823,-0.434082 -1.852083,-1.290878 v -2.583821 z" />
    <path
       id="path18"
       style="color:#000000;fill:#000000;stroke:#000000;stroke-width:0.264583;stroke-linejoin:bevel;stroke-dasharray:none;stroke-opacity:1"
       d="m 18.684133,14.552083 -2.279964,2.851505 0.01344,0.345716 2.279964,2.439644 0.387056,-0.361735 -2.123901,-2.271179 2.137337,-2.673739 z m -0.340031,2.828251 -0.387056,0.361218 2.123901,2.271179 -2.137337,2.673739 0.413928,0.332279 2.279964,-2.853572 -0.01344,-0.345715 z" />
    <path
       style="color:#000000;fill:#000000;stroke:#000000;stroke-width:0.264583;stroke-linejoin:bevel;stroke-dasharray:none;stroke-opacity:1"
       d="m 25.561168,14.552083 -0.476665,0.158203 v 7.402343 l -1.392878,-1.687499 -0.408291,0.335937 1.861729,2.257812 0.468851,-0.169922 v -7.341796 l 1.478833,1.980469 0.423921,-0.316407 z"
       id="path20" />
    <path
       style="color:#000000;fill:#000000;stroke:#000000;stroke-width:0.264583;stroke-linejoin:bevel;stroke-dasharray:none;stroke-opacity:1"
       d="m 33.950425,14.552083 -1.666374,2.570273 -1.633165,-2.56832 -0.488386,0.140623 v 8.183467 l 0.49034,0.13867 1.631211,-2.681599 1.662467,2.683552 0.449315,-0.279293 -1.889078,-3.04878 -0.451269,0.002 -1.363575,2.242153 v -6.328025 l 1.365528,2.148405 0.445409,0.002 1.891032,-2.917924 z"
       id="path21" />
    <path
       id="path22"
       style="color:#000000;fill:#000000;stroke:#000000;stroke-width:0.264583;stroke-dasharray:none;stroke-opacity:1"
       d="m 38.892719,14.552083 v 2.295467 l -1.440739,-1.756482 -0.410311,0.335897 1.85105,2.255159 v 5.336625 h 0.529166 v -5.38055 l 1.853117,-2.209167 -0.406177,-0.340031 -1.44694,1.725476 v -2.262394 z" />
    <path
       style="color:#000000;fill:#000000;stroke:#000000;stroke-width:0.264583;stroke-linejoin:bevel;stroke-dasharray:none;stroke-opacity:1"
       d="m 6.5550415,26.458333 -3.905289,2.945312 0.03905,0.447266 3.540145,1.837891 -3.583103,2.820313 0.328044,0.416015 3.905289,-3.074219 -0.04296,-0.441406 -3.530381,-1.833985 3.569433,-2.695312 z"
       id="path24" />
    <path
       id="path25"
       style="color:#000000;fill:#000000;stroke:#000000;stroke-width:0.264583;stroke-linejoin:bevel;stroke-dasharray:none;stroke-opacity:1"
       d="m 11.505042,26.458333 -1.9800315,2.277241 0.400345,0.347761 1.5037505,-1.733121 V 34.925 h 0.528973 v -7.55205 l 1.385971,1.730021 0.414293,-0.330192 -1.847273,-2.306695 z" />
    <path
       style="color:#000000;fill:#000000;stroke:#000000;stroke-width:0.264583;stroke-linejoin:bevel;stroke-dasharray:none;stroke-opacity:1"
       d="m 16.818324,26.458333 -0.414147,0.216797 v 8.021485 l 0.400473,0.228515 3.81719,-2.28711 -0.0254,-0.46875 -3.182281,-1.453125 3.162751,-1.140625 0.0606,-0.466796 z m 0.113304,0.720703 2.983022,2.072266 -2.983022,1.076172 z m 0,3.898438 2.984982,1.365234 -2.984982,1.78711 z"
       id="path27" />
    <path
       style="color:#000000;fill:#000000;stroke:#000000;stroke-width:0.264583;stroke-linejoin:bevel;stroke-dasharray:none;stroke-opacity:1"
       d="m 23.76392,26.458333 -0.48058,0.150391 v 8.316406 h 0.52942 v -7.470703 l 1.36942,1.976562 h 0.435641 l 1.36944,-1.976562 v 7.470703 h 0.52941 v -8.316406 l -0.48253,-0.150391 -1.63511,2.357422 z"
       id="path28" />
    <path
       id="path31"
       style="color:#000000;fill:#000000;stroke:#000000;stroke-width:0.264583;stroke-linejoin:bevel;stroke-dasharray:none;stroke-opacity:1"
       d="m 30.6431,26.458333 -0.48059,0.150378 V 34.925 h 0.52917 v -7.470345 l 1.15703,1.669148 -1.156,1.668116 v 0.926041 l 1.58647,-2.287199 1.58698,2.288233 V 34.925 h 0.52968 v -8.316289 l -0.48265,-0.150378 -1.63505,2.357479 z m 3.22306,0.996322 v 3.335713 l -1.156,-1.667598 z" />
    <path
       style="color:#000000;fill:#000000;stroke:#000000;stroke-width:0.264583;stroke-linejoin:bevel;stroke-dasharray:none;stroke-opacity:1"
       d="m 37.43805,26.458333 -0.39638,0.230469 v 8.236328 h 0.52916 v -7.783203 l 3.442521,1.949218 0.26165,-0.458984 z"
       id="path32" />
    <path
       id="path33"
       style="color:#000000;fill:#000000;stroke:#000000;stroke-width:0.264583;stroke-linejoin:bevel;stroke-dasharray:none;stroke-opacity:1"
       d="m 3.0654535,38.364583 -0.38654,0.361218 1.72031,1.835547 -1.75339,1.869653 0.00207,0.363286 1.74873,1.83503 -1.7508,1.836581 0.38293,0.365352 1.73322,-1.818494 1.73271,1.818494 0.38448,-0.365352 -1.75132,-1.836581 1.74925,-1.83503 0.00207,-0.363286 -1.7539,-1.87017 1.72082,-1.83503 -0.38654,-0.361218 -1.69705,1.809709 z m 1.69653,2.583305 1.55856,1.662947 -1.55856,1.635043 -1.55959,-1.635043 z" />
    <path
       id="path38"
       style="color:#000000;fill:#000000;stroke:#000000;stroke-width:0.264583;stroke-linejoin:bevel;stroke-dasharray:none;stroke-opacity:1"
       d="m 10.036604,38.364583 -0.5116005,0.09353 v 8.257895 l 0.5038495,0.115238 1.61282,-3.33158 1.61282,3.33158 0.50384,-0.115238 v -8.257895 l -0.511589,-0.09353 -1.605071,4.168738 z m 0.01757,1.517737 1.218531,3.163631 -1.218531,2.515609 z m 3.175001,0 v 5.67924 l -1.218531,-2.515609 z" />
    <path
       style="color:#000000;fill:#000000;stroke:#000000;stroke-width:0.264583;stroke-linejoin:bevel;stroke-dasharray:none;stroke-opacity:1"
       d="m 18.294353,38.364583 -1.890179,3.257812 0.0195,0.292969 1.76326,2.296875 -1.76326,2.296876 0.419819,0.322265 1.67734,-2.185547 1.67736,2.185547 0.41982,-0.322265 -1.76326,-2.296876 1.76326,-2.296875 0.0195,-0.292969 -1.88628,-3.257812 z m 0.22847,0.658203 1.568,2.710938 -1.56996,2.044921 -1.56995,-2.044921 z"
       id="path39" />
    <path
       style="color:#000000;fill:#000000;stroke:#000000;stroke-width:0.264583;stroke-linejoin:bevel;stroke-dasharray:none;stroke-opacity:1"
       d="m 23.283203,38.364584 v 6.083985 l 0.445203,0.195312 3.258964,-3.027344 v 5.214844 h 0.529166 v -5.822265 l -0.445202,-0.19336 -3.258964,3.025391 v -5.476563 z"
       id="path1" />
    <path
       id="path2"
       style="color:#000000;fill:#000000;stroke:#000000;stroke-width:0.264583;stroke-dasharray:none;stroke-opacity:1"
       d="m 32.013551,38.364584 v 2.363164 h -1.85105 v 0.529166 h 1.85105 v 1.920297 h -1.85105 v 0.529166 h 1.85105 v 3.124874 h 0.529166 v -3.124874 h 1.853117 v -0.529166 h -1.853117 v -1.920297 h 1.853117 v -0.529166 h -1.853117 v -2.363164 z" />
    <path
       id="path3"
       style="color:#000000;fill:#000000;stroke:#000000;stroke-width:0.264583;stroke-dasharray:none;stroke-opacity:1"
       d="m 38.894784,38.364584 v 3.292306 l -1.478462,-1.477946 -0.374654,0.373104 1.742529,1.742529 -1.742529,1.742013 0.374654,0.374654 1.478462,-1.478463 v 3.89847 h 0.529167 v -3.896403 l 1.476396,1.476396 0.374654,-0.374654 -1.742529,-1.742013 1.742529,-1.742529 -0.374654,-0.373104 -1.476396,1.475879 v -3.290239 z" />
  </g>
</svg>

<?xml version="1.0" encoding="UTF-8" standalone="no"?>
<!-- Created with Inkscape (http://www.inkscape.org/) -->

<svg
   width="43.920834mm"
   height="49.477085mm"
   viewBox="0 0 43.920834 49.477085"
   version="1.1"
   id="svg1"
   inkscape:version="1.3 (0e150ed6c4, 2023-07-21)"
   sodipodi:docname="runes.svg"
   xmlns:inkscape="http://www.inkscape.org/namespaces/inkscape"
   xmlns:sodipodi="http://sodipodi.sourceforge.net/DTD/sodipodi-0.dtd"
   xmlns="http://www.w3.org/2000/svg"
   xmlns:svg="http://www.w3.org/2000/svg">
  <sodipodi:namedview
     id="namedview1"
     pagecolor="#ffffff"
     bordercolor="#666666"
     borderopacity="1.0"
     inkscape:showpageshadow="2"
     inkscape:pageopacity="0.0"
     inkscape:pagecheckerboard="0"
     inkscape:deskcolor="#d1d1d1"
     inkscape:document-units="px"
     showguides="false"
     inkscape:zoom="5.2289893"
     inkscape:cx="83.763797"
     inkscape:cy="125.74132"
     inkscape:window-width="1920"
     inkscape:window-height="1131"
     inkscape:window-x="0"
     inkscape:window-y="0"
     inkscape:window-maximized="1"
     inkscape:current-layer="layer1" />
  <defs
     id="defs1" />
  <g
     inkscape:label="Layer 1"
     inkscape:groupmode="layer"
     id="layer1">
    <path
       id="rect1"
       style="opacity:1;fill:#1a1a1a;stroke-width:0.3;stroke-linecap:round;stroke-linejoin:round"
       d="M 2.6458334,2.6458333 V 11.1125 H 3.1750647 V 6.8688314 C 5.2407913,6.7319237 6.879167,5.0094945 6.8791668,2.9098999 V 2.6463501 H 6.3494187 A 3.1738249,3.6503903 0 0 1 6.2114258,3.7114014 C 6.1211315,4.0874363 5.970374,4.4377139 5.7690215,4.7516479 A 3.1738249,3.6503903 0 0 1 5.7623006,4.7619829 3.1738249,3.6503903 0 0 1 3.1760962,6.296773 V 5.8079142 C 4.6563155,5.6729305 5.8207044,4.4243972 5.8207043,2.9098999 V 2.6463501 H 5.2284201 a 2.0525733,2.5351561 0 0 1 -0.051683,0.5653402 c -0.056235,0.3953788 -0.202224,0.75236 -0.4191469,1.0510986 a 2.0525733,2.5351561 0 0 1 -1.581492,0.918807 V 3.1760335 2.6463501 h -0.00103 v -5.168e-4 z" />
    <path
       style="color:#000000;fill:#1a1a1a;stroke-width:1;stroke-linejoin:bevel;-inkscape-stroke:none"
       d="M 9.9020344,2.6458333 9.525,2.8841109 V 11.1125 h 0.529412 V 3.3020732 l 3.174511,1.4921646 V 11.1125 h 0.529411 V 4.6262716 L 13.605957,4.3879941 Z"
       id="path6" />
    <path
       id="rect7"
       style="opacity:1;fill:#1a1a1a;fill-opacity:1;stroke:none;stroke-width:0.529165;stroke-linecap:round;stroke-linejoin:bevel;stroke-dasharray:none;stroke-opacity:1"
       d="M 16.404167,2.6458333 V 11.1125 h 0.529166 V 7.9245809 L 17.101799,7.8046916 20.6375,5.3516113 20.574972,4.8849732 17.066659,3.6638591 16.933333,3.617867 V 2.6458333 Z m 0.529166,1.5322063 2.975529,1.0350789 -2.975529,2.0639567 z" />
    <path
       id="path9"
       style="color:#000000;fill:#000000;stroke-width:0.999997;stroke-linejoin:bevel;-inkscape-stroke:none"
       d="M 23.679692,2.6458333 23.283333,2.8763102 V 11.1125 H 23.8125 V 6.2089234 l 3.442167,1.949235 0.262,-0.4588867 -3.704167,-2.09858 V 3.3295125 l 3.442684,1.9492351 0.261483,-0.4588867 z" />
    <path
       style="color:#000000;fill:#000000;stroke-width:0.999997;stroke-linejoin:bevel;-inkscape-stroke:none"
       d="m 33.700691,2.6458333 -3.538191,4.2753906 0.01758,0.3554687 3.84085,3.8359374 0.374907,-0.375 -3.67097,-3.6640624 3.383932,-4.0917968 z"
       id="path11" />
    <path
       style="color:#000000;fill:#000000;stroke-width:0.999997;stroke-linejoin:bevel;-inkscape-stroke:none"
       d="m 37.477107,2.6458333 -0.43544,0.203125 V 11.11263 h 0.529167 V 8.0559895 l 3.64949,-1.7734375 0.05468,-0.4394531 z m 0.09373,0.7695312 3.051981,2.5703125 -3.051981,1.4824219 z"
       id="path12" />
    <path
       id="path13"
       style="color:#000000;fill:#000000;stroke-width:0.999997;-inkscape-stroke:none"
       d="m 2.645835,14.552083 v 8.467183 H 3.175002 V 17.83767 l 3.175,1.908411 v 3.273185 H 6.879168 V 14.552083 H 6.350002 v 4.577498 l -3.175,-1.911511 v -2.665987 z" />
    <path
       id="path16"
       style="color:#000000;fill:#000000;stroke-width:1;-inkscape-stroke:none"
       d="m 11.377085,14.552083 v 2.214852 l -1.549259,-1.080038 -0.302824,0.433566 1.852083,1.291394 v 5.606892 h 0.529167 v -5.237923 l 1.54926,1.080038 0.302823,-0.434082 -1.852083,-1.290878 v -2.583821 z" />
    <path
       id="path18"
       style="color:#000000;fill:#000000;stroke-width:1;stroke-linejoin:bevel;-inkscape-stroke:none"
       d="m 18.684133,14.552083 -2.279964,2.851505 0.01344,0.345716 2.279964,2.439644 0.387056,-0.361735 -2.123901,-2.271179 2.137337,-2.673739 z m -0.340031,2.828251 -0.387056,0.361218 2.123901,2.271179 -2.137337,2.673739 0.413928,0.332279 2.279964,-2.853572 -0.01344,-0.345715 z" />
    <path
       style="color:#000000;fill:#000000;stroke-width:1;stroke-linejoin:bevel;-inkscape-stroke:none"
       d="m 25.561168,14.552083 -0.476665,0.158203 v 7.402343 l -1.392878,-1.687499 -0.408291,0.335937 1.861729,2.257812 0.468851,-0.169922 v -7.341796 l 1.478833,1.980469 0.423921,-0.316407 z"
       id="path20" />
    <path
       style="color:#000000;fill:#000000;stroke-width:1;stroke-linejoin:bevel;-inkscape-stroke:none"
       d="m 33.950425,14.552083 -1.666374,2.570273 -1.633165,-2.56832 -0.488386,0.140623 v 8.183467 l 0.49034,0.13867 1.631211,-2.681599 1.662467,2.683552 0.449315,-0.279293 -1.889078,-3.04878 -0.451269,0.002 -1.363575,2.242153 v -6.328025 l 1.365528,2.148405 0.445409,0.002 1.891032,-2.917924 z"
       id="path21" />
    <path
       id="path22"
       style="color:#000000;fill:#000000;stroke-width:0.999997;-inkscape-stroke:none"
       d="m 38.892719,14.552083 v 2.295467 l -1.440739,-1.756482 -0.410311,0.335897 1.85105,2.255159 v 5.336625 h 0.529166 v -5.38055 l 1.853117,-2.209167 -0.406177,-0.340031 -1.44694,1.725476 v -2.262394 z" />
    <path
       style="color:#000000;fill:#000000;stroke-width:0.999997;stroke-linejoin:bevel;-inkscape-stroke:none"
       d="m 6.5550415,26.458333 -3.905289,2.945312 0.03905,0.447266 3.540145,1.837891 -3.583103,2.820313 0.328044,0.416015 3.905289,-3.074219 -0.04296,-0.441406 -3.530381,-1.833985 3.569433,-2.695312 z"
       id="path24" />
    <path
       id="path25"
       style="color:#000000;fill:#000000;stroke-width:1;stroke-linejoin:bevel;-inkscape-stroke:none"
       d="m 11.505042,26.458333 -1.9800315,2.277241 0.400345,0.347761 1.5037505,-1.733121 V 34.925 h 0.528973 v -7.55205 l 1.385971,1.730021 0.414293,-0.330192 -1.847273,-2.306695 z" />
    <path
       style="color:#000000;fill:#000000;stroke-width:1;stroke-linejoin:bevel;-inkscape-stroke:none"
       d="m 16.818324,26.458333 -0.414147,0.216797 v 8.021485 l 0.400473,0.228515 3.81719,-2.28711 -0.0254,-0.46875 -3.182281,-1.453125 3.162751,-1.140625 0.0606,-0.466796 z m 0.113304,0.720703 2.983022,2.072266 -2.983022,1.076172 z m 0,3.898438 2.984982,1.365234 -2.984982,1.78711 z"
       id="path27" />
    <path
       style="color:#000000;fill:#000000;stroke-width:1;stroke-linejoin:bevel;-inkscape-stroke:none"
       d="m 23.76392,26.458333 -0.48058,0.150391 v 8.316406 h 0.52942 v -7.470703 l 1.36942,1.976562 h 0.435641 l 1.36944,-1.976562 v 7.470703 h 0.52941 v -8.316406 l -0.48253,-0.150391 -1.63511,2.357422 z"
       id="path28" />
    <path
       id="path31"
       style="color:#000000;fill:#000000;stroke-width:1;stroke-linejoin:bevel;-inkscape-stroke:none"
       d="m 30.6431,26.458333 -0.48059,0.150378 V 34.925 h 0.52917 v -7.470345 l 1.15703,1.669148 -1.156,1.668116 v 0.926041 l 1.58647,-2.287199 1.58698,2.288233 V 34.925 h 0.52968 v -8.316289 l -0.48265,-0.150378 -1.63505,2.357479 z m 3.22306,0.996322 v 3.335713 l -1.156,-1.667598 z" />
    <path
       style="color:#000000;fill:#000000;stroke-width:0.999997;stroke-linejoin:bevel;-inkscape-stroke:none"
       d="m 37.43805,26.458333 -0.39638,0.230469 v 8.236328 h 0.52916 v -7.783203 l 3.442521,1.949218 0.26165,-0.458984 z"
       id="path32" />
    <path
       id="path33"
       style="color:#000000;fill:#000000;stroke-width:1;stroke-linejoin:bevel;-inkscape-stroke:none"
       d="m 3.0654535,38.364583 -0.38654,0.361218 1.72031,1.835547 -1.75339,1.869653 0.00207,0.363286 1.74873,1.83503 -1.7508,1.836581 0.38293,0.365352 1.73322,-1.818494 1.73271,1.818494 0.38448,-0.365352 -1.75132,-1.836581 1.74925,-1.83503 0.00207,-0.363286 -1.7539,-1.87017 1.72082,-1.83503 -0.38654,-0.361218 -1.69705,1.809709 z m 1.69653,2.583305 1.55856,1.662947 -1.55856,1.635043 -1.55959,-1.635043 z" />
    <path
       id="path38"
       style="color:#000000;fill:#000000;stroke-width:0.999992;stroke-linejoin:bevel;-inkscape-stroke:none"
       d="m 10.036604,38.364583 -0.5116005,0.09353 v 8.257895 l 0.5038495,0.115238 1.61282,-3.33158 1.61282,3.33158 0.50384,-0.115238 v -8.257895 l -0.511589,-0.09353 -1.605071,4.168738 z m 0.01757,1.517737 1.218531,3.163631 -1.218531,2.515609 z m 3.175001,0 v 5.67924 l -1.218531,-2.515609 z" />
    <path
       style="color:#000000;fill:#000000;stroke-width:1;stroke-linejoin:bevel;-inkscape-stroke:none"
       d="m 18.294353,38.364583 -1.890179,3.257812 0.0195,0.292969 1.76326,2.296875 -1.76326,2.296876 0.419819,0.322265 1.67734,-2.185547 1.67736,2.185547 0.41982,-0.322265 -1.76326,-2.296876 1.76326,-2.296875 0.0195,-0.292969 -1.88628,-3.257812 z m 0.22847,0.658203 1.568,2.710938 -1.56996,2.044921 -1.56995,-2.044921 z"
       id="path39" />
    <path
       style="color:#000000;fill:#000000;stroke-width:0.999997;stroke-linejoin:bevel;-inkscape-stroke:none"
       d="m 23.283203,38.364584 v 6.083985 l 0.445203,0.195312 3.258964,-3.027344 v 5.214844 h 0.529166 v -5.822265 l -0.445202,-0.19336 -3.258964,3.025391 v -5.476563 z"
       id="path1" />
    <path
       id="path2"
       style="color:#000000;fill:#000000;stroke-width:0.999997;-inkscape-stroke:none"
       d="M 32.013551 38.364584 L 32.013551 40.727748 L 30.162501 40.727748 L 30.162501 41.256914 L 32.013551 41.256914 L 32.013551 43.177211 L 30.162501 43.177211 L 30.162501 43.706377 L 32.013551 43.706377 L 32.013551 46.831251 L 32.542717 46.831251 L 32.542717 43.706377 L 34.395834 43.706377 L 34.395834 43.177211 L 32.542717 43.177211 L 32.542717 41.256914 L 34.395834 41.256914 L 34.395834 40.727748 L 32.542717 40.727748 L 32.542717 38.364584 L 32.013551 38.364584 z " />
    <path
       id="path3"
       style="color:#000000;fill:#000000;stroke-width:0.999997;-inkscape-stroke:none"
       d="M 38.894784 38.364584 L 38.894784 41.65689 L 37.416322 40.178944 L 37.041668 40.552048 L 38.784197 42.294577 L 37.041668 44.03659 L 37.416322 44.411244 L 38.894784 42.932781 L 38.894784 46.831251 L 39.423951 46.831251 L 39.423951 42.934848 L 40.900347 44.411244 L 41.275001 44.03659 L 39.532472 42.294577 L 41.275001 40.552048 L 40.900347 40.178944 L 39.423951 41.654823 L 39.423951 38.364584 L 38.894784 38.364584 z " />
  </g>
</svg>
